X: 142132
T: New Line
C: Joe Liddy
Z: BB
S: "The Leitrim Fiddler" (Dublin 1981)
L: 1/8
M: 4/4
R: reel
Q: 1/4 = 180
K: G
GF | DGGA Bcdc | BGAF cFAF | DGGA Bcdc | BGAF G2 GF |
DGGA _B3c | ABGA FG D2 | dcBd cBGF | DGGF G2 :|
Bc | dggf g2 ga | bgag fdcA | _B2 Bc dfga | gfdB cdBc |
dggf g2 bg | (3agf dc BGBc | dcBd cBGF | DGGF G2 :|
%%%%%%%%%%%%%%%%%%%%%%%%
